X: 08022
T: COUSIN CATHY'S JIG
C: Bob McQuillen 21 Feb 91
B: Bob's Note Book 8 #22
%R: jig
Z: 2021 John Chambers <jc:trillian.mit.edu>
M: 6/8
L: 1/8
K: A
e2d \
| cdc BAB | c3 ABc | dcd Bcd | f2e ced |\
| cdc BAB | c2A EAc | ecA BcB | A3 :|
|: c2d \
| efe ece | a3 e2c | def ece | aec Bcd |\
| efe ece | a2f e2d | cAc B=GB | A3 :|
%%begintext align
%% I have been
%% blessed with three wonderful cousins*, and
%% it occured to me some time ago that each one
%% should have a tune. This first one is for my
%% dear cousin Cathy Morse, with love from Bob.
%%endtext
%%begintext align
%% * Edward, James, and Catherine Martinez, all originally from Dedham, MA
%%endtext
%%begintext align
%% Note: May I suggest that this tune and the two that follow be played together
%% as an A,D,G medley; after all, they _are_ related!
%%endtext

%%sep 1 1 500

%%sep 1 1 500

